!! Stephen C. Foster, "Jeanie with the Light Brown Hair"
!! from 'Stephen Foster Song Book' Dover Publications (New York) pp. 54-58
!! NOTE:  Leading and trailing bars of rest have been omitted.
**kern
*M4/4
*MM62
*F:
4dd
=1
4.cc
8a
8b-
8a
8g
8f
=2
8a
8r
{8c
8d}
2f
=3
4f
8g
8a
4ff
4dd
=4
8.cc
16a
8g
8f
4g
8r
8dd
=5
4.cc
8a
8b-
8a
8g
8f
=6
8a
8r
{8c
8d}
2f
=7
8g
8bn
8cc
8dd
{8ee
8ff}
8a
8dd
=8
4cc
8bn
8bn
2dd
=9
8g
8a
8g
8f
4g
8.a
16g
=10
8f
8e
8f
8a
2cc
=11
8dd
8cc
8.dd
16ff
4cc
8.a
16g
=12
4f
8.d
16c
4.c;
!! ad lib:
8c
=
8d
8e
8f
8g
8a
8b-
8cc
8dd
=13
4.cc
8a
8b-
8a
8g
8f
=14
8a
8r
{8c
8d}
2f
=15
8g
8a
8.ff
16dd
8.cc;
16dd
8.f
16g
=16
8a
8r
8a
8g
2f
=17
1r
=18
1r
=19
1r
=20
2.r
4dd
=21
4.cc
8a
8b-
8a
8g
8f
=22
4a
{8c
8d}
2f
=23
4f
8g
8a
4ff
4dd
=24
8.cc
16a
8g
8f
4g
8r
8dd
=25
4.cc
8a
8b-
8a
8g
8f
=26
4a
{8c
8d}
2f
=27
8g
8bn
8cc
8dd
{8ee
8ff}
8a
8dd
=28
4cc
8bn
8b
2cc
=29
8g
8a
8g
8f
4g
8.a
16g
=30
8f
8e
8f
8a
2cc
=31
8dd
8cc
8dd
8ff
4cc
8.a
16g
=32
4f
8.d
16c
4.c;
!! ad lib.:
8c
=
8d
8e
8f
8g
8a
8b-
8cc
8dd
=33
4.cc
8a
8b-
8a
8g
8f
=
4a
{8c
8d}
2f
=34
8g
8a
8.ff
16dd
8.cc;
16dd
8.f
16g
=35
8a
8r
8a
8g
2f
==
*-
